usr/share/icons/biglinux-icons-material/24/actions/distribute-horizontal-left.svg

<svg xmlns="http://www.w3.org/2000/svg" viewBox="0 0 24 24"><path d="M8 4 5 6l3 2V4zm2 0v4l3-2-3-2zM4 7v13h1v-4h6V9H5V7H4zm9 0v13h1v-2h6V9h-6V7h-1zm-8 3h5v5H5v-5zm9 0h5v7h-5v-7z" style="fill:currentColor;fill-opacity:1;stroke:none;color:#dedede"/></svg>

<svg xmlns="http://www.w3.org/2000/svg" viewBox="0 0 24 24">
  <defs id="defs3051">
    <style type="text/css" id="current-color-scheme">
      .ColorScheme-Text {
        color:#dedede;
      }
      </style>
  </defs>
 <path style="fill:currentColor;fill-opacity:1;stroke:none" 
     d="M 8 4 L 5 6 L 8 8 L 8 4 z M 10 4 L 10 8 L 13 6 L 10 4 z M 4 7 L 4 10 L 4 16 L 4 20 L 5 20 L 5 16 L 11 16 L 11 9 L 5 9 L 5 7 L 4 7 z M 13 7 L 13 10 L 13 18 L 13 20 L 14 20 L 14 18 L 20 18 L 20 9 L 14 9 L 14 7 L 13 7 z M 5 10 L 10 10 L 10 15 L 5 15 L 5 10 z M 14 10 L 19 10 L 19 17 L 14 17 L 14 10 z "
     class="ColorScheme-Text"
     />
</svg>
